hosting/assets/images/contacts/Subtract.svg

<svg width="23" height="34" viewBox="0 0 23 34" fill="none" xmlns="http://www.w3.org/2000/svg">
<path fill-rule="evenodd" clip-rule="evenodd" d="M11.2453 0.00178504C17.2031 0.115642 22.0024 5.22122 22.0024 11.5073C22.0024 12.8316 21.7855 14.102 21.3861 15.2826C21.1749 15.9178 20.8896 16.523 20.5757 17.1162L11.9872 33.4157C11.5763 34.1948 10.5091 34.1948 10.0983 33.4157L1.51543 17.1222C1.20156 16.523 0.910524 15.9118 0.693671 15.2646C0.231431 13.8623 0.00887034 12.3343 0.11159 10.7403C0.499644 4.68789 5.46445 -0.106079 11.2453 0.00178504ZM14.7322 11.5074C14.7322 13.6453 13.0817 15.3785 11.0457 15.3785C9.00974 15.3785 7.35923 13.6453 7.35923 11.5074C7.35923 9.36939 9.00974 7.63623 11.0457 7.63623C13.0817 7.63623 14.7322 9.36939 14.7322 11.5074Z" fill="url(#paint0_linear_304_8131)"/>
<defs>
<linearGradient id="paint0_linear_304_8131" x1="11.0446" y1="0" x2="11.0446" y2="34" gradientUnits="userSpaceOnUse">
<stop stop-color="#DEBF82"/>
<stop offset="1" stop-color="#B7975A"/>
</linearGradient>
</defs>
</svg>

<svg width="23" height="34" fill="none" xmlns="http://www.w3.org/2000/svg"><path fill-rule="evenodd" clip-rule="evenodd" d="M11.245.002c5.958.114 10.757 5.22 10.757 11.505a11.75 11.75 0 01-.616 3.776 12.06 12.06 0 01-.81 1.833l-8.589 16.3a1.056 1.056 0 01-1.889 0L1.515 17.122c-.313-.599-.604-1.21-.821-1.857a11.966 11.966 0 01-.582-4.525C.5 4.688 5.464-.106 11.245.002zm3.487 11.505c0 2.138-1.65 3.872-3.686 3.872s-3.687-1.734-3.687-3.872 1.65-3.87 3.687-3.87c2.036 0 3.686 1.732 3.686 3.87z" fill="url(#paint0_linear_304_8131)"/><defs><linearGradient id="paint0_linear_304_8131" x1="11.045" y1="0" x2="11.045" y2="34" gradientUnits="userSpaceOnUse"><stop stop-color="#DEBF82"/><stop offset="1" stop-color="#B7975A"/></linearGradient></defs></svg>
